projects/ccf-eui/src/assets/icons/organ-icons/organ-icon-kidney-left.svg

<svg width="64" height="64" viewBox="0 0 64 64" fill="currentColor" xmlns="http://www.w3.org/2000/svg">
<g clip-path="url(#clip0_1795_255)">
<path d="M26.368 27.3067C25.6784 25.9132 25.3137 24.3814 25.3014 22.8267C25.3014 22.8267 21.9734 23.5947 19.7974 19.392C17.1947 14.3787 19.2 9.25867 24.6827 6.40001C34.2614 1.53601 42.6667 12.8 45.0987 17.6853C47.5307 22.5707 50.9867 36.2667 42.3894 40.768C37.3974 43.328 32.2134 43.456 29.5894 38.2293C28.833 36.9897 28.5086 35.5344 28.6668 34.0909C28.8251 32.6474 29.4571 31.297 30.464 30.2507C28.7811 29.8108 27.3214 28.7617 26.368 27.3067Z" />
<path d="M24.0426 25.8987C24.1611 26.5911 24.369 27.2652 24.6613 27.904C23.8975 28.4285 23.2703 29.1283 22.8324 29.9448C22.3944 30.7614 22.1584 31.6709 22.144 32.5973V59.072H20.0106V32.5973C20.0389 31.2258 20.426 29.8857 21.1334 28.7104C21.8408 27.5351 22.8439 26.5656 24.0426 25.8987Z" />
</g>
<defs>
<clipPath id="clip0_1795_255">
<rect width="64" height="64" />
</clipPath>
</defs>
</svg>

<svg xmlns="http://www.w3.org/2000/svg" width="64" height="64" fill="currentColor" viewBox="0 0 64 64"><g clip-path="url(#a)"><path d="M26.368 27.307a10.3 10.3 0 0 1-1.067-4.48s-3.328.768-5.504-3.435C17.195 14.379 19.2 9.259 24.683 6.4c9.578-4.864 17.984 6.4 20.416 11.285 2.432 4.886 5.888 18.582-2.71 23.083-4.992 2.56-10.176 2.688-12.8-2.539a6.57 6.57 0 0 1 .875-7.978 7.02 7.02 0 0 1-4.096-2.944"/><path d="M24.043 25.899c.118.692.326 1.366.618 2.005a5.8 5.8 0 0 0-2.517 4.693v26.475h-2.133V32.597a7.85 7.85 0 0 1 4.032-6.698"/></g><defs><clipPath id="a"><path d="M0 0h64v64H0z"/></clipPath></defs></svg>
